src/assets/icons/company.svg

<?xml version="1.0" encoding="UTF-8" standalone="no"?>
<svg
   width="16.081013"
   height="30.517178"
   viewBox="0 0 16.081013 30.517178"
   fill="none"
   version="1.1"
   id="svg7"
   xmlns="http://www.w3.org/2000/svg"
   xmlns:svg="http://www.w3.org/2000/svg">
  <defs
     id="defs7" />
  <path
     d="M 15.281013,29.674848 V 6.0305682 c -10e-5,-0.25339 -0.0799,-0.50033 -0.228,-0.70591 -0.1481,-0.20558 -0.3571,-0.3594 -0.5974,-0.4397 L 2.3880926,0.86245821 c -0.18145,-0.060809 -0.37478,-0.077533 -0.56398,-0.048787 -0.18919,0.028745 -0.36883,0.102135 -0.52403,0.21409699 -0.1552,0.11195 -0.28151,0.25926 -0.36846803,0.42973 -0.086961,0.17047 -0.132076,0.3592 -0.131611,0.55057 V 29.674848"
     stroke="#a0a3bd"
     stroke-width="1.6"
     stroke-linecap="round"
     stroke-linejoin="round"
     id="path1" />
  <path
     d="m 10.452313,22.054748 v 1.2068"
     stroke="#a0a3bd"
     stroke-width="1.6"
     stroke-linecap="round"
     stroke-linejoin="round"
     id="path2" />
  <path
     d="m 10.452313,16.021048 v 1.2068"
     stroke="#a0a3bd"
     stroke-width="1.6"
     stroke-linecap="round"
     stroke-linejoin="round"
     id="path3" />
  <path
     d="M 10.452313,9.9873782 V 11.194148"
     stroke="#a0a3bd"
     stroke-width="1.6"
     stroke-linecap="round"
     stroke-linejoin="round"
     id="path4" />
  <path
     d="m 5.6281226,22.054748 v 1.2068"
     stroke="#a0a3bd"
     stroke-width="1.6"
     stroke-linecap="round"
     stroke-linejoin="round"
     id="path5" />
  <path
     d="m 5.6281226,16.021048 v 1.2068"
     stroke="#a0a3bd"
     stroke-width="1.6"
     stroke-linecap="round"
     stroke-linejoin="round"
     id="path6" />
  <path
     d="M 5.6281226,9.9873782 V 11.194148"
     stroke="#a0a3bd"
     stroke-width="1.6"
     stroke-linecap="round"
     stroke-linejoin="round"
     id="path7" />
  <path
     d="M 15.373981,29.811907 0.75246236,29.79687"
     stroke="#a0a3bd"
     stroke-width="1.41054"
     stroke-linecap="round"
     stroke-linejoin="round"
     id="path7-0" />
</svg>

<svg width="17" height="31" viewBox="0 0 17 31" fill="none" xmlns="http://www.w3.org/2000/svg">
<path d="M15.281 29.6747V6.03038C15.2809 5.77699 15.2011 5.53005 15.053 5.32447C14.9049 5.11888 14.6959 4.96507 14.4556 4.88477L2.38808 0.862266C2.20663 0.801457 2.0133 0.784733 1.8241 0.813478C1.63491 0.842224 1.45527 0.915613 1.30007 1.02757C1.14487 1.13953 1.01856 1.28684 0.931602 1.45731C0.844641 1.62778 0.799526 1.81651 0.799991 2.00787V29.6747" stroke="#A0A3BD" stroke-width="1.6" stroke-linecap="round" stroke-linejoin="round"/>
<path d="M10.4523 22.0547V23.2614" stroke="#A0A3BD" stroke-width="1.6" stroke-linecap="round" stroke-linejoin="round"/>
<path d="M10.4523 16.021V17.2277" stroke="#A0A3BD" stroke-width="1.6" stroke-linecap="round" stroke-linejoin="round"/>
<path d="M10.4523 9.9873V11.1941" stroke="#A0A3BD" stroke-width="1.6" stroke-linecap="round" stroke-linejoin="round"/>
<path d="M5.62811 22.0547V23.2614" stroke="#A0A3BD" stroke-width="1.6" stroke-linecap="round" stroke-linejoin="round"/>
<path d="M5.62811 16.021V17.2277" stroke="#A0A3BD" stroke-width="1.6" stroke-linecap="round" stroke-linejoin="round"/>
<path d="M5.62811 9.9873V11.1941" stroke="#A0A3BD" stroke-width="1.6" stroke-linecap="round" stroke-linejoin="round"/>
</svg>
